modules/zondicons/icons/mobile-devices.svg

<?xml version="1.0" encoding="UTF-8" standalone="no"?>
<svg width="20px" height="20px" viewBox="0 0 20 20" version="1.1" xmlns="http://www.w3.org/2000/svg" xmlns:xlink="http://www.w3.org/1999/xlink">
    <!-- Generator: Sketch 3.7.2 (28276) - http://www.bohemiancoding.com/sketch -->
    <title>mobile-devices</title>
    <desc>Created with Sketch.</desc>
    <defs></defs>
    <g id="Page-1" stroke="none" stroke-width="1" fill="none" fill-rule="evenodd">
        <g id="mobile-devices" fill="#000000">
            <path d="M17,6 L17,1.99079514 C17,0.898212381 16.1072288,0 15.0059397,0 L2.99406028,0 C1.89451376,0 1,0.891309342 1,1.99079514 L1,18.0092049 C1,19.1017876 1.8927712,20 2.99406028,20 L11.5029699,20 L8,20 L8,16 L3,16 L3,2 L15,2 L15,5 L17,5 L17,6 C18.1047419,6 19,6.89706013 19,8.00585866 L19,17.9941413 C19,19.1019465 18.1125667,20 17.000385,20 L10.999615,20 C9.89525812,20 9,19.1029399 9,17.9941413 L9,8.00585866 C9,6.89805351 9.88743329,6 10.999615,6 L17,6 Z M11,8 L17,8 L17,16 L11,16 L11,8 Z M14,19 C14.5522847,19 15,18.5522847 15,18 C15,17.4477153 14.5522847,17 14,17 C13.4477153,17 13,17.4477153 13,18 C13,18.5522847 13.4477153,19 14,19 Z" id="Combined-Shape"></path>
        </g>
    </g>
</svg>

<svg width="20" height="20" viewBox="0 0 20 20" xmlns="http://www.w3.org/2000/svg"><path d="M17 6V1.99C17 .899 16.107 0 15.006 0H2.994C1.894 0 1 .891 1 1.99v16.02C1 19.101 1.893 20 2.994 20h8.509H8v-4H3V2h12v3h2v1c1.105 0 2 .897 2 2.006v9.988A1.998 1.998 0 0 1 17 20h-6c-1.105 0-2-.897-2-2.006V8.006C9 6.898 9.887 6 11 6h6zm-6 2h6v8h-6V8zm3 11a1 1 0 1 0 0-2 1 1 0 0 0 0 2z" fill="#000" fill-rule="evenodd"/></svg>
